svg/media/shuffle_line.svg

<?xml version="1.0" encoding="UTF-8"?>
<svg width="24px" height="24px" viewBox="0 0 24 24" version="1.1" xmlns="http://www.w3.org/2000/svg" xmlns:xlink="http://www.w3.org/1999/xlink">
    <title>shuffle_line</title>
    <g id="Icon" stroke="none" stroke-width="1" fill="none" fill-rule="evenodd">
        <g id="Media" transform="translate(-96.000000, -96.000000)" fill-rule="nonzero">
            <g id="shuffle_line" transform="translate(96.000000, 96.000000)">
                <path d="M0,0 L0,24 L24,24 L24,0 L0,0 Z M11.4065,23.2578 L11.4181,23.2595 L11.4891,23.295 L11.5081,23.2987 L11.5233,23.295 L11.5943,23.2595 C11.6042,23.2564 11.613,23.259 11.6179,23.2649 L11.622,23.2758 L11.6391,23.7031 L11.6341,23.7235 L11.6231,23.7357 L11.5195,23.8097 L11.5047,23.8136 L11.4929,23.8097 L11.3893,23.7357 L11.3767,23.7197 L11.3733,23.7031 L11.3904,23.2758 C11.3924,23.2657 11.399,23.2593 11.4065,23.2578 Z M11.1416,23.1453 L11.1555,23.1473 L11.3402,23.2397 L11.3501,23.2499 L11.3528,23.2611 L11.3349,23.6906 L11.3301,23.7034 L11.3216,23.7105 L11.1207,23.8032 C11.1086,23.8069 11.0978,23.803 11.0922,23.7952 L11.0882,23.7812 L11.1223,23.1665 C11.1247,23.1546 11.1326,23.147 11.1416,23.1453 Z M11.857,23.1473 C11.8668,23.1424 11.8778,23.1453 11.8844,23.1526 L11.8901,23.1665 L11.9242,23.7812 C11.9249,23.7927 11.9172,23.8019 11.9074,23.8046 L11.8917,23.8032 L11.6908,23.7105 L11.6814,23.7024 L11.6775,23.6906 L11.6596,23.2611 L11.6628,23.2485 L11.6722,23.2397 L11.857,23.1473 Z" id="MingCute"></path>
                <path d="M17.5784,3.65537 C17.2988,3.50915 16.9739,3.72042 16.9468,4.06597 C16.9271,4.31793 16.9071,4.63284 16.8931,5 L16.4721,5 C14.5783,5 12.847,6.07001 12,7.76393 L11,9.76393 L10,7.76393 C9.15304,6.07001 7.42172,5 5.52786,5 L4,5 C3.44772,5 3,5.44771 3,6 C3,6.55228 3.44772,7 4,7 L5.52786,7 C6.66418,7 7.70297,7.64201 8.21115,8.65836 L9.88197,12 L8.21115,15.3416 C7.70297,16.358 6.66418,17 5.52786,17 L4,17 C3.44772,17 3,17.4477 3,18 C3,18.5523 3.44772,19 4,19 L5.52786,19 C7.42172,19 9.15304,17.93 10,16.2361 L11,14.2361 L12,16.2361 C12.847,17.93 14.5783,19 16.4721,19 L16.8934,19 C16.9086,19.3965 16.9308,19.7317 16.9521,19.9922 C16.9785,20.3161 17.275,20.4953 17.5504,20.3518 C17.9184,20.1599 18.4561,19.8598 19.1,19.4416 C19.7445,19.023 20.2447,18.6489 20.5764,18.3862 C20.8243,18.1899 20.8348,17.812 20.599,17.6243 C20.2659,17.3591 19.7556,16.9752 19.1007,16.5498 C18.4769,16.1446 17.9477,15.8485 17.5784,15.6554 C17.2988,15.5092 16.9739,15.7204 16.9468,16.066 C16.9271,16.3179 16.9071,16.6328 16.8931,17 L16.4721,17 C15.3358,17 14.297,16.358 13.7889,15.3416 L12.118,12 L13.7889,8.65836 C14.297,7.642 15.3358,7 16.4721,7 L16.8934,7 C16.9086,7.39647 16.9308,7.73171 16.9521,7.99217 C16.9785,8.31614 17.275,8.49534 17.5504,8.35178 C17.9184,8.15994 18.4561,7.85981 19.1,7.44157 C19.7445,7.02297 20.2447,6.64888 20.5764,6.38622 C20.8243,6.1899 20.8348,5.81202 20.599,5.62431 C20.2659,5.35906 19.7556,4.97516 19.1007,4.54981 C18.4769,4.14462 17.9477,3.84848 17.5784,3.65537 Z" id="路径" fill="#09244B"></path>
            </g>
        </g>
    </g>
</svg>

<svg xmlns="http://www.w3.org/2000/svg" width="24" height="24"><g fill="none" fill-rule="nonzero"><path d="M0 0v24h24V0H0Zm11.407 23.258.011.002.071.035.02.004.014-.004.071-.036c.01-.003.019 0 .024.006l.004.01.017.428-.005.02-.01.013-.104.074-.015.004-.012-.004-.104-.074-.012-.016-.004-.017.017-.427c.002-.01.009-.017.016-.018Zm-.265-.113.014.002.184.093.01.01.003.011-.018.43-.005.012-.008.008-.201.092c-.012.004-.023 0-.029-.008l-.004-.014.034-.614c.003-.012.01-.02.02-.022Zm.715.002a.023.023 0 0 1 .027.006l.006.014.034.614c0 .012-.007.02-.017.024l-.015-.002-.201-.093-.01-.008-.003-.011-.018-.43.003-.012.01-.01.184-.092Z"/><path fill="#09244B" d="M17.578 3.655c-.28-.146-.604.065-.631.411-.02.252-.04.567-.054.934h-.42A5 5 0 0 0 12 7.764l-1 2-1-2A5 5 0 0 0 5.528 5H4a1 1 0 1 0 0 2h1.528A3 3 0 0 1 8.21 8.658L9.882 12l-1.67 3.342A3 3 0 0 1 5.527 17H4a1 1 0 1 0 0 2h1.528A5 5 0 0 0 10 16.236l1-2 1 2A5 5 0 0 0 16.472 19h.421c.016.396.038.732.06.992.026.324.322.503.597.36.368-.192.906-.492 1.55-.91a19.538 19.538 0 0 0 1.476-1.056c.248-.196.259-.574.023-.762-.333-.265-.843-.649-1.498-1.074a18.9 18.9 0 0 0-1.523-.895c-.28-.146-.604.065-.631.411-.02.252-.04.567-.054.934h-.42a3 3 0 0 1-2.684-1.658L12.118 12l1.67-3.342A3 3 0 0 1 16.473 7h.421c.016.396.038.732.06.992.026.324.322.503.597.36.368-.192.906-.492 1.55-.91a19.552 19.552 0 0 0 1.476-1.056c.248-.196.259-.574.023-.762a19.33 19.33 0 0 0-1.498-1.074 18.908 18.908 0 0 0-1.523-.895Z"/></g></svg>
